X: 130
M:2/4
L:1/16
K:G
((3DEF)|\
vGBAG GBdB | cdef gedB | G2(BA) GBdB | ABAG FDF"4"A |
K:D
|:uFG|\
v(BA)AA A2Bc | dcde f2(ef) | gfeg fedf | edcB AGFG |
 (BA)AA A2Bc | dcde f2(ef) | gfeg fedf | edc"4"e d2:|


